src/icons/scout-external-email.svg

<svg xmlns="http://www.w3.org/2000/svg" width="512" height="512" viewBox="0 0 512 512">
    <path d="M102.4 147.1C45.9 147.1 0 193 0 249.5c0 56.6 45.9 102.4 102.4 102.4 56.6 0 102.4-45.8 102.4-102.4-.1-56.5-45.9-102.4-102.4-102.4zM64.6 328.8c-2.5-1.4-4.3-3.4-4.9-7.3-1.8-9.5-.1-14.7 8.2-20.2 4-2.6 4.5-5.8 7.7-8.9.8-1 2.7-4.7 4.3-4.9 1.6-.4 6.3-1.1 7.1-3 1.8-2.3 5.5-12.5 7.3-13.5 2.7-1.8 6.6-7.3 3.8-10.6-3.3-4-7.7-4-11.8-6-3.7-1.8-5.2-10.2-8.1-13.1-5.4-5.5-13.7-8.8-20.6-12.2-3.7-1.5-3.4-1.9-6.3 1-3.7 3.7-9.2-1-9.8-4.8-.1-1.2-1.5-8.2-.7-8.9 8.2-5.1-3.8-4-4.8-6.3-2.5-6.9 5.9-12.2 11.5-12.9 6.3-.8 7.7 10 10.2 9.1 1.2-.5 1.2-5.6 1.4-6.7.5-3.7 1.6-4.3 5.2-5.5 4.1-1.5 7.3-3.4 11.8-4.3 4.9-1.5 9.3-.7 13.2-4 1.8-1.4 3.2.7 4.8 1.1 3.7.7 4.4-5.1 4.4-7.3 0-2.1.5-4-2.2-6.2-3.6-2.7-8.7-.4-11.5 2.5-3.4 3.3-7.4 3-6.3-2.5.3-2.1 4.7-4.4 6.5-5.5 1.6-1 2.6 1.1 4.8.7 3-.7 4.1 2.2 7.7 2.2 1.5-.4 6.7-3.2 4-8.9h1.2c.8 0 1.6 0 2.5.1 1.2 4.1-2.7 7.6-.7 12.6 4 9.8 7.3 1.4 11.3-3.2 1.4-1.4 2.1-1 4.3-1.4 1.4-.3 3.3-4.3 3.8-5.5 9.2 2.2 17.9 6 25.8 11.1-3.4.4-4.3-.7-4.3 3.4 0 1.5.1 6.2 2.3 6.5 3.8.4 3.2 3.2 6.7 3.6 3.4.4 1.2 3.4 2.6 6.5 1.5 4.7-9.1 6-11.1 6.7-6.3 2.1 2.9 11.1 7 10.2 1.2-.4 5.5-.8 5.9-2.3 0-.1-.8-5.1-.4-5.5.7-1 2.3-1.4 4.9.1 6.2 3.4 9.2 11.8 16.4 13.3 1 .3 2.6-.1 3.8 1 1 1.4 3.6 3.8.5 3.8-4.1-1-6.3.4-9.8-2.2-3.6-2.7-5.6-4.9-10.4-5.1-4-.1-7.6-1.8-11.8-1.1-2.3.4-4.5 1.2-6.9 1.9-2.1.7-2.5 4.4-4.7 4.9-8.9 2.1-7 10.6-8.5 17.3-.7 2.6-2.7 9.6-.4 12 4.1 4.1 9.1 9.6 15.1 10.4 3.3.5 10.4-2.1 12.8 1.2 1 1.9 3.4-1.4 4.1.3 1.6 4.9-1.9 8.2-1.9 13.1-.1 7 4.3 9.5-1.5 15.7-6.3 6.2-1.9 14-5.4 21.4-1.8 3.8-2.2 9.1-4.9 10.9-6.2 3.8-12.6 7-19.5 9.3-12.2 4-25.1 5.4-37.9 3.8-6.7-.8-13.3-2.3-19.7-4.5-1.6-.7-3.3-1.1-4.8-1.6-1.1-.9-2.2-1.3-3.3-1.8zm-19.1-12.4c-.3-.3-.4-.4-.7-.5-1.5-1.4-3.2-2.7-4.5-4.3-1.5-1.5-3-3.2-4.4-4.8 0 0 0-.1-.1-.1l-.8-1.1C11.4 277 7.9 235.2 27.7 203.2c2.7 2.7-1.9 8.2 3.4 12 2.3 1.6 4.5 1 4.1 4-.4 3 2.5 2.9 2.9 5.5 1.2 5.6 8.8 8.5 4.5 15-4.1 5.8-7.7 12.2-4.7 19.5 1.1 2.6 3.6 5.4 5.5 7.4 3.6 3.7 3.4 1.5 3.4 6-.1 1.9 2.3 4.1 2.2 5.4-.5 3.7-1.4 7.3-1.8 10.9-.8 13.1-.1 25.8 9.8 35.7-3.7-2.2-7.1-4.7-10.4-7.4-.4-.2-.7-.5-1.1-.8zM234 190.1c5.6 3 84.8 46 87.8 47.7 3 1.6 6 2.2 10.6 2.2s7.7-.7 10.6-2.2c3-1.5 82-44.7 87.8-47.7 2.1-1.1 5.6-3 6.5-5.2 1.4-4-.1-5.4-5.9-5.4H233.5c-5.8 0-7.1 1.5-5.9 5.4.8 2.2 4.4 4.1 6.4 5.2z"/>
    <path d="M435.2 204.959c-4.3 2.2-42.3 29.3-67.6 45.6l42.6 47.8c1.1 1.1 1.5 2.2 1 2.9-.7.5-1.9.3-3-.7l-51-43c-7.7 4.9-13.2 8.4-14 8.9-4 2.1-6.7 2.2-10.6 2.2-3.9 0-6.6-.3-10.6-2.2-1-.5-6.3-4-14-8.9l-51 43c-1.1 1.1-2.5 1.4-3 .7-.7-.5-.1-1.8 1-2.9l42.5-47.8c-25.1-16.4-63.8-43.4-68-45.6-4.5-2.3-4.8.4-4.8 2.5v106.1c0 4.8 7.1 10.9 12.2 10.9H429c5.1 0 11.1-6 11.1-10.9v-106.2c-.6-2.2-.2-4.8-4.9-2.4z"/>
</svg>

<?xml version="1.0" encoding="UTF-8"?>
<svg width="512px" height="512px" viewBox="0 0 512 512" version="1.1" xmlns="http://www.w3.org/2000/svg" xmlns:xlink="http://www.w3.org/1999/xlink">
    <!-- Generator: Sketch 62 (91390) - https://sketch.com -->
    <title>scout-external-email</title>
    <desc>Created with Sketch.</desc>
    <g id="scout-external-email" stroke="none" stroke-width="1" fill="none" fill-rule="evenodd">
        <path d="M102.4,147.1 C45.9,147.1 0,193 0,249.5 C0,306.1 45.9,351.9 102.4,351.9 C159,351.9 204.8,306.1 204.8,249.5 C204.7,193 158.9,147.1 102.4,147.1 Z M64.6,328.8 C62.1,327.4 60.3,325.4 59.7,321.5 C57.9,312 59.6,306.8 67.9,301.3 C71.9,298.7 72.4,295.5 75.6,292.4 C76.4,291.4 78.3,287.7 79.9,287.5 C81.5,287.1 86.2,286.4 87,284.5 C88.8,282.2 92.5,272 94.3,271 C97,269.2 100.9,263.7 98.1,260.4 C94.8,256.4 90.4,256.4 86.3,254.4 C82.6,252.6 81.1,244.2 78.2,241.3 C72.8,235.8 64.5,232.5 57.6,229.1 C53.9,227.6 54.2,227.2 51.3,230.1 C47.6,233.8 42.1,229.1 41.5,225.3 C41.4,224.1 40,217.1 40.8,216.4 C49,211.3 37,212.4 36,210.1 C33.5,203.2 41.9,197.9 47.5,197.2 C53.8,196.4 55.2,207.2 57.7,206.3 C58.9,205.8 58.9,200.7 59.1,199.6 C59.6,195.9 60.7,195.3 64.3,194.1 C68.4,192.6 71.6,190.7 76.1,189.8 C81,188.3 85.4,189.1 89.3,185.8 C91.1,184.4 92.5,186.5 94.1,186.9 C97.8,187.6 98.5,181.8 98.5,179.6 C98.5,177.5 99,175.6 96.3,173.4 C92.7,170.7 87.6,173 84.8,175.9 C81.4,179.2 77.4,178.9 78.5,173.4 C78.8,171.3 83.2,169 85,167.9 C86.6,166.9 87.6,169 89.8,168.6 C92.8,167.9 93.9,170.8 97.5,170.8 C99,170.4 104.2,167.6 101.5,161.9 L102.7,161.9 C103.5,161.9 104.3,161.9 105.2,162 C106.4,166.1 102.5,169.6 104.5,174.6 C108.5,184.4 111.8,176 115.8,171.4 C117.2,170 117.9,170.4 120.1,170 C121.5,169.7 123.4,165.7 123.9,164.5 C133.1,166.7 141.8,170.5 149.7,175.6 C146.3,176 145.4,174.9 145.4,179 C145.4,180.5 145.5,185.2 147.7,185.5 C151.5,185.9 150.9,188.7 154.4,189.1 C157.8,189.5 155.6,192.5 157,195.6 C158.5,200.3 147.9,201.6 145.9,202.3 C139.6,204.4 148.8,213.4 152.9,212.5 C154.1,212.1 158.4,211.7 158.8,210.2 C158.8,210.1 158,205.1 158.4,204.7 C159.1,203.7 160.7,203.3 163.3,204.8 C169.5,208.2 172.5,216.6 179.7,218.1 C180.7,218.4 182.3,218 183.5,219.1 C184.5,220.5 187.1,222.9 184,222.9 C179.9,221.9 177.7,223.3 174.2,220.7 C170.6,218 168.6,215.8 163.8,215.6 C159.8,215.5 156.2,213.8 152,214.5 C149.7,214.9 147.5,215.7 145.1,216.4 C143,217.1 142.6,220.8 140.4,221.3 C131.5,223.4 133.4,231.9 131.9,238.6 C131.2,241.2 129.2,248.2 131.5,250.6 C135.6,254.7 140.6,260.2 146.6,261 C149.9,261.5 157,258.9 159.4,262.2 C160.4,264.1 162.8,260.8 163.5,262.5 C165.1,267.4 161.6,270.7 161.6,275.6 C161.5,282.6 165.9,285.1 160.1,291.3 C153.8,297.5 158.2,305.3 154.7,312.7 C152.9,316.5 152.5,321.8 149.8,323.6 C143.6,327.4 137.2,330.6 130.3,332.9 C118.1,336.9 105.2,338.3 92.4,336.7 C85.7,335.9 79.1,334.4 72.7,332.2 C71.1,331.5 69.4,331.1 67.9,330.6 C66.8,329.7 65.7,329.3 64.6,328.8 L64.6,328.8 Z M45.5,316.4 C45.2,316.1 45.1,316 44.8,315.9 C43.3,314.5 41.6,313.2 40.3,311.6 C38.8,310.1 37.3,308.4 35.9,306.8 C35.9,306.8 35.9,306.7 35.8,306.7 L35,305.6 C11.4,277 7.9,235.2 27.7,203.2 C30.4,205.9 25.8,211.4 31.1,215.2 C33.4,216.8 35.6,216.2 35.2,219.2 C34.8,222.2 37.7,222.1 38.1,224.7 C39.3,230.3 46.9,233.2 42.6,239.7 C38.5,245.5 34.9,251.9 37.9,259.2 C39,261.8 41.5,264.6 43.4,266.6 C47,270.3 46.8,268.1 46.8,272.6 C46.7,274.5 49.1,276.7 49,278 C48.5,281.7 47.6,285.3 47.2,288.9 C46.4,302 47.1,314.7 57,324.6 C53.3,322.4 49.9,319.9 46.6,317.2 C46.2,317 45.9,316.7 45.5,316.4 L45.5,316.4 Z M234,190.1 C239.6,193.1 318.8,236.1 321.8,237.8 C324.8,239.4 327.8,240 332.4,240 C337,240 340.1,239.3 343,237.8 C346,236.3 425,193.1 430.8,190.1 C432.9,189 436.4,187.1 437.3,184.9 C438.7,180.9 437.2,179.5 431.4,179.5 L233.5,179.5 C227.7,179.5 226.4,181 227.6,184.9 C228.4,187.1 232,189 234,190.1 L234,190.1 Z" id="Shape" fill="#000000" fill-rule="nonzero"></path>
        <path d="M435.2,204.958658 C430.9,207.158658 392.9,234.258658 367.6,250.558658 L410.2,298.358658 C411.3,299.458658 411.7,300.558658 411.2,301.258658 C410.5,301.758658 409.3,301.558658 408.2,300.558658 L357.2,257.558658 C349.5,262.458658 344,265.958658 343.2,266.458658 C339.2,268.558658 336.5,268.658658 332.6,268.658658 C328.7,268.658658 326,268.358658 322,266.458658 C321,265.958658 315.7,262.458658 308,257.558658 L257,300.558658 C255.9,301.658658 254.5,301.958658 254,301.258658 C253.3,300.758658 253.9,299.458658 255,298.358658 L297.5,250.558658 C272.4,234.158658 233.7,207.158658 229.5,204.958658 C225,202.658658 224.7,205.358658 224.7,207.458658 L224.7,313.558658 C224.7,318.358658 231.8,324.458658 236.9,324.458658 L429,324.458658 C434.1,324.458658 440.1,318.458658 440.1,313.558658 L440.1,207.358658 C439.5,205.158658 439.9,202.558658 435.2,204.958658 L435.2,204.958658 Z" id="Path" fill="#000000" fill-rule="nonzero"></path>
    </g>
</svg>
